assets/images/shape/work-process-shape-orange.svg

<svg xmlns="http://www.w3.org/2000/svg" width="60" height="60" viewBox="0 0 60 60" fill="none"><path fill-rule="evenodd" clip-rule="evenodd" d="M21.6016 2.77778C21.6016 1.24365 20.3579 0 18.8238 0H10C4.47715 0 0 4.47715 0 10V46.4225C0 50.8534 3.59193 54.4453 8.02279 54.4453H13.2682C14.8021 54.4453 16.0456 55.6888 16.0456 57.2227V57.2227C16.0456 58.7565 17.289 60 18.8229 60H41.0469C42.5808 60 43.8242 58.7565 43.8242 57.2227V57.2227C43.8242 55.6888 45.0677 54.4453 46.6016 54.4453H51.9121C56.3789 54.4453 60 50.8242 60 46.3574V10C60 4.47715 55.5228 0 50 0H41.046C39.5119 0 38.2682 1.24365 38.2682 2.77778V2.77778C38.2682 4.3119 37.0246 5.55556 35.4904 5.55556H24.3793C22.8452 5.55556 21.6016 4.3119 21.6016 2.77778V2.77778Z" fill="#EA5501"></path></svg>

<?xml version="1.0" encoding="UTF-8"?>
<svg id="Layer_1" xmlns="http://www.w3.org/2000/svg" version="1.1" width="150" height="150" viewBox="0 0 60 60">
  <!-- Generator: Adobe Illustrator 29.8.2, SVG Export Plug-In . SVG Version: 2.1.1 Build 3)  -->
  <defs>
    <style>
      .st0 {
        fill: #5a994d;
        fill-rule: evenodd;
      }
    </style>
  </defs>
  <path class="st0" d="M21.6,2.8C21.6,1.2,20.4,0,18.8,0h-8.8C4.5,0,0,4.5,0,10v36.4c0,4.4,3.6,8,8,8h5.2c1.5,0,2.8,1.2,2.8,2.8h0c0,1.5,1.2,2.8,2.8,2.8h22.2c1.5,0,2.8-1.2,2.8-2.8h0c0-1.5,1.2-2.8,2.8-2.8h5.3c4.5,0,8.1-3.6,8.1-8.1V10C60,4.5,55.5,0,50,0h-9C39.5,0,38.3,1.2,38.3,2.8h0c0,1.5-1.2,2.8-2.8,2.8h-11.1c-1.5,0-2.8-1.2-2.8-2.8h0Z"/>
</svg>
